X: 37298
T: Skolvan Doubl Plinn
R: reel
M: 4/4
K: Bminor
|e2 ef ed (3cBA|e2 de fg f2|e2 f2 ed (3cBA|e2 de fe f2|
|:f2 fd ef gf|e2 (3dcB cd B2|(3Bcd ef af g2|fg ed e2 e2:|

